dist/assets/img/objects.svg

<svg width="101" height="101" viewBox="0 0 101 101" fill="none" xmlns="http://www.w3.org/2000/svg">
<path d="M50.8118 98.4563C50.6771 98.4563 50.5424 98.4002 50.4414 98.2992L4.63234 51.2668C4.44156 51.0648 4.44156 50.7506 4.63234 50.5598L50.4414 3.52748C50.6322 3.32548 50.9801 3.32548 51.1709 3.52748L96.98 50.5598C97.1708 50.7618 97.1708 51.076 96.98 51.2668L51.1709 98.2992C51.0811 98.4002 50.9577 98.4563 50.8118 98.4563ZM5.7209 50.9077L50.8118 97.2106L95.9027 50.9077L50.8118 4.6048L5.7209 50.9077Z" fill="#8A8A8A"/>
<path d="M56.9167 54.4203L4.98023 51.4239C4.69967 51.4127 4.48644 51.1658 4.49766 50.8853C4.50888 50.6047 4.74456 50.3803 5.03634 50.4027L56.9055 53.399L96.576 50.4027C96.879 50.369 97.1034 50.5935 97.1259 50.874C97.1483 51.1546 96.9351 51.4015 96.6546 51.4239L56.9167 54.4203Z" fill="#8A8A8A"/>
<path d="M50.8118 98.4563C50.7893 98.4563 50.7669 98.4563 50.7444 98.4563C50.4639 98.4226 50.2731 98.1645 50.3068 97.8839L56.3668 53.9153L50.3068 3.94271C50.2731 3.66215 50.4751 3.40403 50.7557 3.37037C51.0362 3.3367 51.2943 3.53873 51.328 3.81928L57.388 53.8479C57.388 53.8928 57.388 53.9377 57.388 53.9826L51.328 98.0186C51.2831 98.2655 51.0699 98.4563 50.8118 98.4563Z" fill="#8A8A8A"/>
<path d="M50.8118 98.1982C50.6883 98.1982 50.5761 98.1084 50.5537 97.9737L43.8428 47.3615C43.8428 47.3391 43.8428 47.3166 43.8428 47.2829L50.5537 3.83049C50.5761 3.69583 50.6883 3.59482 50.823 3.61727C50.9577 3.62849 51.0587 3.74073 51.0587 3.87539V97.9401C51.0587 98.0747 50.9577 98.1869 50.823 98.1982C50.823 98.1982 50.823 98.1982 50.8118 98.1982ZM44.359 47.3278L50.5537 94.0684V7.19716L44.359 47.3278Z" fill="#8A8A8A"/>
<path d="M96.6209 51.1658H5.0139C4.87923 51.1658 4.76701 51.0536 4.75579 50.9189C4.75579 50.7843 4.85678 50.6608 4.99145 50.6496L44.0897 47.0697L96.6433 50.6496C96.778 50.6608 96.8902 50.773 96.879 50.9077C96.8678 51.0536 96.7556 51.1658 96.6209 51.1658ZM10.5913 50.6496H89.1132L44.0784 47.5747L10.5913 50.6496Z" fill="#8A8A8A"/>
<path d="M56.883 54.1622C56.8381 54.1622 56.8044 54.1509 56.7708 54.1285L43.9999 47.5523C43.8765 47.485 43.8203 47.339 43.8877 47.2044C43.955 47.0809 44.1121 47.0248 44.2356 47.0922L57.0065 53.6684C57.1299 53.7357 57.186 53.8816 57.1187 54.0163C57.0626 54.1173 56.9728 54.1622 56.883 54.1622Z" fill="#8A8A8A"/>
</svg>

<svg width="101" height="101" fill="none" xmlns="http://www.w3.org/2000/svg"><path d="M50.812 98.456a.528.528 0 01-.37-.157L4.631 51.267a.508.508 0 010-.707l45.81-47.033a.515.515 0 01.729 0L96.98 50.56a.51.51 0 010 .707L51.17 98.299a.467.467 0 01-.358.157zM5.72 50.908L50.81 97.21l45.092-46.303-45.09-46.302L5.72 50.908z" fill="#8A8A8A"/><path d="M56.917 54.42L4.98 51.424a.514.514 0 01-.482-.539.5.5 0 01.538-.482l51.87 2.996 39.67-2.996c.303-.034.527.19.55.471a.514.514 0 01-.471.55L56.917 54.42z" fill="#8A8A8A"/><path d="M50.812 98.456h-.068a.508.508 0 01-.437-.572l6.06-43.969-6.06-49.972a.516.516 0 01.449-.573.516.516 0 01.572.45l6.06 50.028v.135l-6.06 44.036a.53.53 0 01-.516.437z" fill="#8A8A8A"/><path d="M50.812 98.198a.264.264 0 01-.258-.224L43.843 47.36v-.078l6.71-43.453c.023-.134.135-.235.27-.213a.257.257 0 01.236.258V97.94a.257.257 0 01-.236.258h-.011zm-6.453-50.87l6.195 46.74V7.198l-6.195 40.13z" fill="#8A8A8A"/><path d="M96.62 51.166H5.015a.267.267 0 01-.258-.247c0-.135.1-.258.235-.27l39.099-3.58 52.553 3.58c.135.012.247.124.236.259-.011.146-.123.258-.258.258zm-86.029-.516h78.522l-45.035-3.075-33.487 3.075z" fill="#8A8A8A"/><path d="M56.883 54.162a.19.19 0 01-.112-.033L44 47.552a.258.258 0 01-.112-.348c.067-.123.224-.18.348-.112l12.77 6.576c.124.068.18.214.113.348a.266.266 0 01-.236.146z" fill="#8A8A8A"/></svg>
